X:1
T:Musette
T:Musette
T:BWV anh. 126
T:Johann Sebastian Bach?
C:Johann Sebastian Bach?
%%score 1 2
L:1/8
M:2/4
K:D
V:1 treble 
V:2 bass 
V:1
 a2 g/f/e/d/ | a2 g/f/e/d/ | F/G/AGF | EAFD | a2 g/f/e/d/ | a2 g/f/e/d/ | F/G/AGF | EA D2 :: %8
 c/d/e c/d/e | ae e2 | ae ae | d/c/B/A/ BE | e^dE=d- | dca^g | e^dE=d- | dca^g | %16
 e/^d/c/d/ e/d/c/d/ | e^GAd | c/d/eAD | C/D/E A,2 | a2 g/f/e/d/ | a2 g/f/e/d/ | F/G/AGF | EAFD | %24
 a2 g/f/e/d/ | a2 g/f/e/d/ | F/G/AGF | EA D2 :| %28
V:2
 D,,D, D,,D, | D,,D, D,,D, | F,/G,/A, G,F, | E,A,F,D, | D,,D, D,,D, | D,,D, D,,D, | F,/G,/A, G,F, | %7
 E,A, D,2 :: A,,A, A,,A, | A,,A, A,,A, | A,,A, A,,A, | A,,A, E,,E, | E,,E, E,,E, | E,,E, E,,E, | %14
 E,,E, E,,E, | E,,E, E,,E, | E,,E, E,,E, | E,,E, C,D, | E,2 A,,D, | C,/D,/E, A,,2 | D,,D, D,,D, | %21
 D,,D, D,,D, | F,/G,/A, G,F, | E,A,F,D, | D,,D, D,,D, | D,,D, D,,D, | F,/G,/A, G,F, | E,A, D,2 :| %28

